X: 1
T: Tango Poquito (in C)
R: tango
M: C
L: 1/8
K: C
"G7"G2 \
|: "C"E2Gc ec zG | "G7"F2GB dB zG | F2GB dB zG |1 "C"E2Gc ec zG :|2 "C"E2Gc dc "C7"zc ||
|: "F"A2cf aa zA | "C"G2ce gg zG | "G7"F2GB dd zB |1 "C"dc zG cBAG :|2 "C"dc z"G7"B "C"cz |]
